X: 15701
T: Golden Grove
R: reel
M: 4/4
K: Gmajor
|:GA|B2BA Bdge|dBAc BAGA|B2BA Bdge|dBAF G2:|
|:Bd|a2aa a2aa|a2ab agef|gBBA Bdef|gBBA Bdeg|
a2aa a2aa|a2ab agef|gBBA Bdge|dBAF G2:|

